src/pos-icons/polymer.svg

<svg height="24" viewBox="0 0 24 24" width="24" xmlns="http://www.w3.org/2000/svg"><path d="m19 4h-4l-7.9 12.63-2.6-4.63 4.5-8h-4l-4.5 8 4.5 8h4l7.89-12.63 2.61 4.63-4.5 8h4l4.5-8z"/></svg>

<?xml version="1.0" encoding="UTF-8"?><!DOCTYPE svg PUBLIC "-//W3C//DTD SVG 1.1//EN" "http://www.w3.org/Graphics/SVG/1.1/DTD/svg11.dtd"><svg xmlns="http://www.w3.org/2000/svg" xmlns:xlink="http://www.w3.org/1999/xlink" version="1.1" id="mdi-polymer" width="24" height="24" viewBox="0 0 24 24"><path d="M19,4H15L7.1,16.63L4.5,12L9,4H5L0.5,12L5,20H9L16.89,7.37L19.5,12L15,20H19L23.5,12L19,4Z" /></svg>
